X:1
T:There's too Many Irons in the Fire
T:There's too Many Irons in the Fire
T:Tim Smith (Cardiacs)
C:Tim Smith (Cardiacs)
L:1/8
Q:1/4=148
M:3/4
K:C
V:1 treble nm="Piano" snm="Pno."
V:1
|:"Abpower""^$8\times$" _A4"Abpower" A2 ::"Ab" _A2"Ebm" A2 A2 |"Gb" _A2"Dbm" A2"^$4\times$" A2 :: %3
"Ab""Ebm" _e6- |"Gb""Dbm" e6 |"Ab" _A>_B c"Ebm" _e2 e |"Gb" _d2 _g"Dbm" c2 _e | %7
"Ab" _a2 a"Ebm" _e2 e |"Gb" _g2 g"Dbm" _e2 _d |"Ab""Ebm" c6- |"Gb""Dbm" c6 :: %11
"Ab" z4"Eb/G""^$4\times$" z2 :|"Ab""Ebm" _e6- |"Gb""Dbm" e6 |"Ab" _A_B c"Ebm" _e2 e | %15
"Gb" _d2 _g"Dbm" c2 c |"Ab" c_d/_e/- e"Ebm" _A2 c |"Gb" _B2 _G"Dbm" _E2 _D |"Ab" C_D/"Ebm" _E4 z/ | %19
"Gb""Dbm" z6 |"Ab""Ebm" _e6- |"Gb""Dbm" e6 |"Ab" _A_B c"Ebm" _e2 e |"Gb" _d2 _g"Dbm" c2 c | %24
"Ab" _a2 a"Ebm" _e2 e |"Gb" _g2 g"Dbm" _e2 e |"Ab" _a2 a"Ebm" _e2 e |"Gb" _g2 g"Dbm" _e2 e |: %28
"Ab" _a/a/ a2"Ebm" _e2 e |"Gb" _g2 g"Dbm" _e2 e |"Ab" _a2 a"Ebm" _e2 e |1"Gb" _g2 g"Dbm"_e>ee :|2 %32
"Gb" _g2 g"Dbm" _d3 ||"Eb" _e4"Bb" z2 |"Eb""Bb/F" z6 |"Eb/G" z2"Cm" z2"Eb" z3/2"Bb/F" z/ | %36
"Eb" z4"Bb" z2 |"Eb" z4"Bb/F" z2 |"Eb/G" z2"F/C" z4 |"G" z6 ||"Ab/Eb" z4"Eb" z2 | %41
"Ab/Eb" z4"Eb" z2 |"Ab" z2"Ebm/Gb" z2"Gb/Bb" z2 |"Dbm" z4"Fb/Ab" z2 |"Cbm/E" z4"E" z2 | z6 || %46
"Db/Ab" z4"Ab" z2 |"Db/Ab" z4"Ab" z2 |"Db/Ab" z2"Bbm" z2"Bbm/F" z2 |"Db/Ab" z4"Ab" z2 | %50
"Db/Ab" z4"Ab" z2 |"Db/Ab" z2"Eb/Bb" z2"F" z2 | z6 |:"Ab/Eb" z4"Eb" z2 |"Ab/Eb" z4"Eb" z2 | %55
"Ab/Eb" z2"Ebm/Gb" z2"Gb" z2 |"Dbm/Ab" z4"Fb/Ab" z2 |"Eb/Bb" z4"Bb" z2 |"Eb/Bb" z4"Bb" z2 | %59
"Eb/Bb" z2"Cm/Eb" z2"Eb" z2 |"Eb/Bb" z4"Bb" z2 |"Eb/Bb" z4"Bb" z2 |"Eb/Bb" z2"F/C" z4 | %63
"G""^$3\times$" z6 :| %64

